X: 8037
T: Connie Galagher's
R: polka
M: 2/4
K: Amajor
|:e/d/|cE ED/E/|Fd d>c|dF G/F/G|Ac e/f/e/d/|
cE ED/E/|Fd d>c|d/c/B/A/ G/E/F/G/|1 BA A:|2 BA A2||
|:e/d/c/e/ a>g|gf f2|d/c/B/c/ df|e/d/c/d/ e2|
e/d/c/e/ a>g|gf f2|d/c/B/c/ dG|BA A2:|2 BA A/f/||

